X: 1
T: Dimmers, The
M: 4/4
L: 1/8
R: reel
K: Gmaj
GFGA GFED|E/F/G Ac BGG2|Bcdg e2dB|cABG EcBA|!
G2GA GFED|E/F/G Ac BGG2|Bcdg e2dB|cABG EDD2||!
dedc BGG2|Bcdg eAA2|Bcdg e2dB|cABG EDD2|!
dedc BGG2|Bcdg eAA2|B/c/d ef g2dB|cABG EcBA||
